X:1
T:’Tis  Almost Time for the Lord to Come
T:’Tis  Almost Time for the Lord to Come
T:George Washington Sederquist
T:George Washington Sederquist, 1897
T:Public Domain Courtesy of the Cyber Hymnal™
C:George Washington Sederquist
Z:Public Domain
Z:Courtesy of the Cyber Hymnal™
%%score ( 1 2 ) ( 3 4 )
L:1/8
Q:1/4=115
M:4/4
K:Db
V:1 treble 
V:2 treble 
V:3 bass 
V:4 bass 
V:1
 [FA]2 | [DF]2 [DF]2 [DF]2 [FA][DF] | [DG]2 [DG]2 (B d2) [GB] | [FA]2 [FA]2 (Ad) ([FA][FA]) | %4
w: 1.~’Tis|al- most time for the|Lord to come, * I|hear the peo- * ple *|
w: 2.~The|signs fore- told in the|sun and moon, * In|earth and sea * and *|
w: 3.~It|must be time for the|wait- ing church * To|cast her pride * a- *|
w: 4.~Go|quick- ly out in the|streets and lanes * And|in the broad * high- *|
 [CE]6 [CA]2 | [DF]2 [DF]2 ([DF][CG]) [DA]2 | [DG]2 [DG]2 (Bd) ([Gc]>[GB]) | %7
w: say; The|stars of heaven * are|grow- ing dim, * It *|
w: sky, A-|loud pro- claim * to|all man- kind, * The *|
w: way, With|gir- ded loins * and|burn- ing lamps, * To *|
w: way, And|call the maimed, * the|halt, and blind, * To~be *|
 ([FA][FA]) D>[CE] [DF][EG] [DF]>[CE] | D6 ||"^Refrain" [FA]>[EG] | %10
w: must * be the break- ing of the|day.||
w: coming * of the Mas- ter draw- eth|nigh.|O it|
w: look * for the break- ing of the|day.||
w: ready * for the break- ing of the|day.||
 [DF]2 [DF]>[DF] [DF][EG] [FA]>[GB] | [FA]6 [EG]>[DF] | [CE]2 [CE]>[CE] [CE][DF] [EG]>[GB] | %13
w: |||
w: must be the break- ing of the|day! O it|must be the break- ing of the|
w: |||
w: |||
 ([FA]4 [DF]2) [FA]2 | [Fd][Fd][Fd][Fd] [FA]3 [FA] | [GB][Bd][Ac][GB] [FA]2 D>[DE] | %16
w: |||
w: day! * The|night is al- most gone, The|day is com- ing on; O it|
w: |||
w: |||
 [DF]2 [DG]>[DF] [CE][EG] [DF]>[CE] | D6 |] %18
w: ||
w: must be the break- ing of the|day!|
w: ||
w: ||
V:2
 x2 | x8 | x4 D3 x | x4 F2 x2 | x8 | x8 | x4 D2 x2 | x2 D3/2 x9/2 | D6 || x2 | x8 | x8 | x8 | x8 | %14
 x8 | x6 D3/2 x/ | x8 | D6 |] %18
V:3
 [D,D]2 | [D,A,]2 [D,A,]2 [D,A,]2 [D,A,][D,A,] | [G,B,]2 [G,B,]2 [G,B,]3 [G,D] | %3
 [D,D]2 [D,D]2 (DA,) [D,A,]2 | [A,,A,]6 [A,,A,]2 | [D,A,]2 [D,A,]2 ([D,A,][E,A,]) [F,A,]2 | %6
 [G,B,]2 [G,B,]2 (DB,) ([G,D]>[G,D]) | %7
 ([D,D][D,D]) [A,,F,]>[A,,G,] [A,,A,][A,,A,] [A,,A,]>[A,,G,] | [D,F,]6 || [D,D]>[D,A,] | %10
 [D,A,]2 [D,A,]>[D,A,] [D,A,][D,A,] [D,D]>[D,D] | [D,D]6 A,>A, | %12
 A,2 A,>A, [A,,A,][A,,A,] [A,,D]>[A,,C] | ([D,D]4 [D,A,]2) [D,D]2 | %14
 [D,A,][D,A,][D,A,][D,A,] [D,D]3 [D,D] | [G,D][G,D][G,D][G,D] [D,D]2 [D,F,]>[D,G,] | %16
 [D,A,]2 [D,B,]>[D,A,] [A,,A,][A,,A,] [A,,A,]>[A,,G,] | [D,F,]6 |] %18
V:4
 x2 | x8 | x8 | x4 D,2 x2 | x8 | x8 | x4 G,2 x2 | x8 | x6 || x2 | x8 | x6 A,>A, | A,2 A,>A, x4 | %13
 x8 | x8 | x8 | x8 | x6 |] %18

